svgs/thin/file-exclamation.svg

<svg xmlns="http://www.w3.org/2000/svg" viewBox="0 0 384 512"><!-- Font Awesome Pro 6.0.0-alpha2 by @fontawesome - https://fontawesome.com License - https://fontawesome.com/license (Commercial License) --><path d="M374.629 150.625L233.371 9.375C227.371 3.371 219.23 0 210.746 0H64C28.652 0 0 28.652 0 64V448C0 483.344 28.652 512 64 512H320C355.348 512 384 483.344 384 448V173.254C384 164.766 380.629 156.629 374.629 150.625ZM224 22.629L361.375 160H248C234.781 160 224 149.234 224 136V22.629ZM368 448C368 474.469 346.469 496 320 496H64C37.531 496 16 474.469 16 448V64C16 37.531 37.531 16 64 16H208V136C208 158.062 225.938 176 248 176H368V448ZM192 400C183.178 400 176 407.18 176 416S183.178 432 192 432S208 424.82 208 416S200.822 400 192 400ZM191.938 368C196.344 368 199.938 364.406 199.938 360V216C199.938 211.594 196.344 208 191.938 208S183.938 211.594 183.938 216V360C183.938 364.406 187.531 368 191.938 368Z"/></svg>

<svg xmlns="http://www.w3.org/2000/svg" viewBox="0 0 384 512"><!--! Font Awesome Pro 6.3.0 by @fontawesome - https://fontawesome.com License - https://fontawesome.com/license (Commercial License) Copyright 2023 Fonticons, Inc. --><path d="M374.6 150.6l-141.3-141.3C227.4 3.371 219.2 0 210.7 0H64C28.65 0 0 28.65 0 64l.0065 384c0 35.34 28.65 64 64 64H320c35.35 0 64-28.66 64-64V173.3C384 164.8 380.6 156.6 374.6 150.6zM224 22.63L361.4 160H248C234.8 160 224 149.2 224 136V22.63zM368 448c0 26.47-21.53 48-48 48H64c-26.47 0-48-21.53-48-48V64c0-26.47 21.53-48 48-48h144v120c0 22.06 17.94 40 40 40h120V448zM192 400c-8.822 0-16 7.18-16 16s7.178 16 16 16s16-7.18 16-16S200.8 400 192 400zM191.1 368c4.406 0 7.958-3.594 7.958-8v-144c0-4.406-3.594-8-8-8s-8 3.594-8 8v144C183.9 364.4 187.6 368 191.1 368z"/></svg>
